Origami/64x64/apps/darktable.svg

<svg width="64" height="64" version="1" xmlns="http://www.w3.org/2000/svg">
 <path d="m55.999332 32.000464a23.999681 23.999681 0 0 1 -23.999681 23.999681 23.999681 23.999681 0 0 1 -23.999681 -23.999681 23.999681 23.999681 0 0 1 23.999681 -23.99968 23.999681 23.999681 0 0 1 23.999681 23.99968z" style="fill:#343434"/>
 <path d="m33.875626 7.0235834c-0.255997-0.0108-0.507993 0.0154-0.76199 0.0118l-7.985894 21.115719-11.397448-13.093226c-0.305396 0.316396-0.630992 0.607592-0.921788 0.941388l12.319236 14.151812 8.747884-23.127693zm20.779724 12.77323-22.831697 3.78915-0.75799 2.123972 24.687672-4.095946c-0.331996-0.627991-0.71799-1.221184-1.097985-1.817176zm-15.269797 8.493087-1.447981 0.267997 15.939788 19.031747c2.863962-4.431941 4.255943-9.635872 4.063946-14.881802-0.191998 4.555939-1.565979 9.01588-4.063946 12.881828l-14.491807-17.29977zm-33.327557 3.00196c-0.1345982 3.205958 0.297396 6.457915 1.4139812 9.593873l18.589153-3.443954-1.447981-1.731977-17.141172 3.175957c-0.8845883-2.483966-1.3203825-5.043932-1.4139812-7.593899zm26.875643 8.997881-0.75799 0.123998-5.511927 15.471794c-7.298503-1.353982-13.500621-5.701924-17.31997-11.681844l-1.0977854 0.181997c3.6567511 6.923908 10.392262 12.011841 18.417755 13.499821l6.269917-17.595766zm17.335769 8.651885c-5.103932 5.285929-12.165838 8.123892-19.383742 8.021893l-0.76199 2.011973c7.911895 0.339996 15.74579-2.867962 21.06772-8.97588l-0.921988-1.057986z" style="opacity:.2"/>
 <path d="m37.33558 7.1139953-6.269917 17.596566 24.687672-4.095945c-3.655951-6.923708-10.393862-12.01164-18.417755-13.500621z" style="fill:#e9721a"/>
 <path d="m56.527325 24.112569-18.590353 3.444954 15.941188 19.032547c4.253343-6.584312 5.354129-14.880202 2.649165-22.477701z" style="fill:#e3bf20"/>
 <path d="m51.191396 48.998238-12.321236-14.151012-8.747084 23.127693c7.910095 0.339615 15.74739-2.868562 21.06772-8.976681z" style="fill:#28a226"/>
 <path d="m26.663722 56.886133 6.269917-17.595766-24.687672 4.095946c3.6567511 6.923908 10.393262 12.01164 18.418955 13.50082z" style="fill:#2977d1"/>
 <path d="m7.4725772 39.888359 18.591153-3.445954-15.941788-19.031547c-4.2535435 6.583713-5.3541289 14.879602-2.6493648 22.477701z" style="fill:#c029c0"/>
 <path d="m12.807506 15.00189 12.322236 14.150612 8.745884-23.127692c-7.909895-0.3391955-15.747191 2.8689619-21.06772 8.9770802z" style="fill:#c01728"/>
 <path d="m37.335938 7.1132812l-6.269532 17.597657 0.378906-0.0625 5.890626-16.533204c7.664534 1.4222947 14.147922 6.1327626 17.90039 12.585938l0.517578-0.085938c-3.655951-6.923708-10.394075-12.012973-18.417968-13.501953z" style="fill:#ffffff;opacity:.2"/>
 <path d="m56.527344 24.113281l-18.589844 3.44336 0.726562 0.867187 17.863282-3.310547c0.941583 2.64465 1.412135 5.37369 1.458984 8.085938 0.066974-3.040122-0.401337-6.115298-1.458984-9.085938z" style="fill:#ffffff;opacity:.2"/>
 <path d="m38.871094 34.847656l-8.748047 23.126953c0.125711 0.005398 0.251288 0.002252 0.376953 0.00586l8.371094-22.132813 11.871094 13.634766c0.148842-0.162308 0.304072-0.317737 0.449218-0.484375l-12.320312-14.150391z" style="fill:#ffffff;opacity:.2"/>
 <path d="m32.933594 39.291016l-24.6875 4.095703c0.1638788 0.310298 0.3414895 0.611299 0.5175781 0.914062l23.791016-3.947265 0.378906-1.0625z" style="fill:#ffffff;opacity:.2"/>
 <path d="m10.121094 17.410156c-2.7729077 4.291958-4.1951491 9.313012-4.1074221 14.392578 0.1040606-4.735662 1.5167584-9.380748 4.1074221-13.390625l15.21875 18.166016 0.724609-0.134766-15.943359-19.033203z" style="fill:#ffffff;opacity:.2"/>
 <path d="m32.394531 6.0019531c-7.398068 0.0953388-14.597941 3.2736391-19.585937 8.9999999h-0.001953l0.449218 0.515625c5.220381-5.6927768 12.676521-8.7147275 20.242188-8.4980468l0.376953-0.9941406c-0.494368-0.0211997-0.987264-0.0297934-1.480469-0.0234375z" style="fill:#ffffff;opacity:.2"/>
</svg>

<svg xmlns="http://www.w3.org/2000/svg" width="64" height="64" version="1">
 <path style="fill:#343434" d="M 55.999332,32.000464 A 23.999681,23.999681 0 0 1 31.999651,56.000145 23.999681,23.999681 0 0 1 7.9999701,32.000464 23.999681,23.999681 0 0 1 31.999651,8.0007835 23.999681,23.999681 0 0 1 55.999332,32.000464 Z"/>
 <path style="opacity:0.2" d="m 33.875626,7.0235834 c -0.255997,-0.0108 -0.507993,0.0154 -0.76199,0.0118 L 25.127742,28.151102 13.730294,15.057876 c -0.305396,0.316396 -0.630992,0.607592 -0.921788,0.941388 L 25.127742,30.151076 33.875626,7.0233834 Z m 20.779724,12.7732296 -22.831697,3.78915 -0.75799,2.123972 24.687672,-4.095946 C 55.421339,20.985998 55.035345,20.392805 54.65535,19.796813 Z M 39.385553,28.2899 37.937572,28.557897 53.87736,47.589644 c 2.863962,-4.431941 4.255943,-9.635872 4.063946,-14.881802 -0.191998,4.555939 -1.565979,9.01588 -4.063946,12.881828 L 39.385553,28.2899 Z M 6.057996,31.29186 c -0.1345982,3.205958 0.297396,6.457915 1.4139812,9.593873 L 26.06113,37.441779 24.613149,35.709802 7.4719772,38.885759 C 6.5873889,36.401793 6.1515947,33.841827 6.057996,31.29186 Z m 26.875643,8.997881 -0.75799,0.123998 -5.511927,15.471794 C 19.365219,54.531551 13.163101,50.183609 9.3437523,44.203689 L 8.2459669,44.385686 C 11.902718,51.309594 18.638229,56.397527 26.663722,57.885507 l 6.269917,-17.595766 z m 17.335769,8.651885 c -5.103932,5.285929 -12.165838,8.123892 -19.383742,8.021893 l -0.76199,2.011973 c 7.911895,0.339996 15.74579,-2.867962 21.06772,-8.97588 l -0.921988,-1.057986 z"/>
 <path style="fill:#e9721a" d="M 37.33558,7.1139953 31.065663,24.710561 55.753335,20.614616 C 52.097384,13.690908 45.359473,8.6029755 37.33558,7.1139953 Z"/>
 <path style="fill:#e3bf20" d="M 56.527325,24.112569 37.936972,27.557523 53.87816,46.59007 c 4.253343,-6.584312 5.354129,-14.880202 2.649165,-22.477701 z"/>
 <path style="fill:#28a226" d="M 51.191396,48.998238 38.87016,34.847226 30.123076,57.974919 c 7.910095,0.339615 15.74739,-2.868562 21.06772,-8.976681 z"/>
 <path style="fill:#2977d1" d="M 26.663722,56.886133 32.933639,39.290367 8.2459669,43.386313 c 3.6567511,6.923908 10.3932621,12.01164 18.4189551,13.50082 z"/>
 <path style="fill:#c029c0" d="M 7.4725772,39.888359 26.06373,36.442405 10.121942,17.410858 C 5.8683985,23.994571 4.7678131,32.29046 7.4725772,39.888559 Z"/>
 <path style="fill:#c01728" d="M 12.807506,15.00189 25.129742,29.152502 33.875626,6.0248098 C 25.965731,5.6856143 18.128435,8.8937717 12.807906,15.00189 Z"/>
 <path style="fill:#ffffff;opacity:0.2" d="M 37.335938 7.1132812 L 31.066406 24.710938 L 31.445312 24.648438 L 37.335938 8.1152344 C 45.000472 9.5375291 51.48386 14.247997 55.236328 20.701172 L 55.753906 20.615234 C 52.097955 13.691526 45.359831 8.6022614 37.335938 7.1132812 z"/>
 <path style="fill:#ffffff;opacity:0.2" d="M 56.527344 24.113281 L 37.9375 27.556641 L 38.664062 28.423828 L 56.527344 25.113281 C 57.468927 27.757931 57.939479 30.486971 57.986328 33.199219 C 58.053302 30.159097 57.584991 27.083921 56.527344 24.113281 z"/>
 <path style="fill:#ffffff;opacity:0.2" d="M 38.871094 34.847656 L 30.123047 57.974609 C 30.248758 57.980007 30.374335 57.976861 30.5 57.980469 L 38.871094 35.847656 L 50.742188 49.482422 C 50.89103 49.320114 51.04626 49.164685 51.191406 48.998047 L 38.871094 34.847656 z"/>
 <path style="fill:#ffffff;opacity:0.2" d="M 32.933594 39.291016 L 8.2460938 43.386719 C 8.4099726 43.697017 8.5875833 43.998018 8.7636719 44.300781 L 32.554688 40.353516 L 32.933594 39.291016 z"/>
 <path style="fill:#ffffff;opacity:0.2" d="M 10.121094 17.410156 C 7.3481863 21.702114 5.9259449 26.723168 6.0136719 31.802734 C 6.1177325 27.067072 7.5304303 22.421986 10.121094 18.412109 L 25.339844 36.578125 L 26.064453 36.443359 L 10.121094 17.410156 z"/>
 <path style="fill:#ffffff;opacity:0.2" d="M 32.394531 6.0019531 C 24.996463 6.0972919 17.79659 9.2755922 12.808594 15.001953 L 12.806641 15.001953 L 13.255859 15.517578 C 18.47624 9.8248012 25.93238 6.8028505 33.498047 7.0195312 L 33.875 6.0253906 C 33.380632 6.0041909 32.887736 5.9955972 32.394531 6.0019531 z"/>
</svg>
